X: 1797
T: Peter Mollerson's Hambo
B: australian traditional tunes wiki
M:3/4
L:1/8
R: Hambo
Q: 1/4=100
K:G
V:1 
"G"B2ABG2|B2ABG2|"D"A2AG FG|AG F>ED2|
"G"B2ABG2|B2ABG2|"D"A2A>GF2|"G"G2G4||
|:"G"d2d2cd|"C"ed cB AB|"D7"c2c2Bc|"G"dc BA GA|
B2B2AB|"D"cBA2G2|F2D2EF|"G"G4G2:|
% abcbook-tune_id 6342d53af9b18ad60cea49ef


% abcbook-boost 0
% abcbook-tablature 
% abcbook-transpose 
% abcbook-lastupdated 1665324384503
% abcbook-soundfonts 
% abcbook-repeats 1
% NFF Book 2007

